X: 3
M: C|
L: 1/8
K: D
fa2b  afde | fede  fede | fa2b afde | fee2 e3e |
faab  afde |.fz ed B2A2 | BcdB AGED | F2D2 D2 |]


